X:1
T:Harvest Song
T:Harvest Song
T:Charles Hutchinson Gabriel
T:Charles Hutchinson Gabriel, 1907
T:Public Domain Courtesy of the Cyber Hymnal™
T:Public Domain Courtesy of the Cyber Hymnal™
C:Charles Hutchinson Gabriel
Z:Public Domain
Z:Courtesy of the Cyber Hymnal™
%%score ( 1 2 ) ( 3 4 )
L:1/8
Q:1/4=88
M:4/4
K:Bb
V:1 treble 
V:2 treble 
V:3 bass 
V:4 bass 
V:1
 [Fd][Fd][Fd][Fd] [Fd][Ec][Ec][DB] | [DF][DF][DF][DG] [DG][DF] [DF]2 | F[EA][EA][Ec] [Ec] [Ef]3 | %3
w: 1.~Look, the har- vest field is teem- ing|With the rich and rip- ened grain;|Wide it spreads be- fore us,|
w: 2.~In the mar- kets and the by- ways,|Whil- ing pre- cious hours a- way,|Ma- ny stand com- plain- ing,|
w: 3.~Hear ye not the faith- ful sing- ing|Of the la- bor and the yield?|Rouse ye, then, O sleep- ers,|
 [DF][FB][FB][Fd] [Fd] [Ff]3 | [Fd][Fd][Fd][Fd] [Fd][Ec][Ec][DB] | [DF][DF][DF][DG] [DG][DF] F2 | %6
w: Bright the sky is o’er us;|In the sun- light, gold- en gleam- ing,|Heav- ing like the rest- less main,|
w: I- dle still re- main- ing,|Loi- tering in the dust- y high- ways,|Hear- ing not the Mas- ter say:|
w: Join the hap- py reap- ers;|To the wind your sor- rows fling- ing,|Pa- tient- ly the sick- le wield:|
 [FA] c2 (z G)[FA] c2 (z G) | [FA][Fc][=Ec][EG] [_Ec]4 || %8
w: “Reap- ers * are need- *|* ed,” Re- sounds o’er|
w: “Reap- ers * are need- *|* ed, O who will|
w: “Reap- ers * are need- *|* ed, A- wake, and|
"^Refrain" !>![Fd]2 !>![Fd]2 !>![Fd]3 [DF] | [Fd][Bd][Ad][Gd] d3 F | %10
w: hill and plain. *||
w: work to- day?” Rouse|ye then, and to the fields|
w: to the field!” *||
 !>![FAe]2 !>![FAe]2 !>![FAe]3 F | [Fe][Be][Ae][Ae] e3 F | [Fd][Fd][Fc][FB] | [Ee][Ee][Fd][Gc] | %14
w: ||||
w: a- way, Go la-|bor for the Mas- ter while|you may; Lo! He|is call- ing, night|
w: ||||
 [Ff]2 [_Af]2 [Gf][Ge][Gd][Gc] | [Fd] [Fd]2 [Fd] [Ec] [Ec]2 [Ec] | [DB]6 z2 |] %17
w: |||
w: is fall- ing, Hast- en to|o- bey, For reap- ers are|need-|
w: |||
V:2
 x8 | x8 | F x7 | x8 | x8 | x6 (DF) | x F (E2 F) =E2 x3 | x8 || x8 | x4 (FBD)F | x7 F | x4 (FGA)F | %12
 x4 | x4 | x8 | x8 | x8 |] %17
V:3
 [B,,B,][B,,B,][B,,B,][B,,B,] [B,,B,][B,,B,][B,,F,][B,,F,] | %1
w: |
 [B,,B,][B,,B,][B,,B,][B,,B,] [B,,B,][B,,B,] [B,,B,]2 | [F,A,][F,C][F,C][F,A,] [F,A,] [F,A,]3 | %3
w: ||
 B,[B,D][B,D]B, B, [B,D]3 | [B,,B,][B,,B,][B,,B,][B,,B,] [B,,B,][B,,B,][B,,F,][B,,F,] | %5
w: to * * the field *||
 [B,,B,][B,,B,][B,,B,][B,,B,] [B,,B,][B,,B,] B,2 | [C,C][C,A,] (B,C) [F,C][F,A,] (B,C) x2 | %7
w: * * * * * * a-||
 [F,C][F,A,][C,B,][C,B,] [F,A,]4 || !>![B,,B,]2 !>![B,,B,]2 !>![B,,B,]3 [B,,B,] | %9
w: ||
 [B,,B,]2 [B,,B,]2 [B,,B,][B,,D][B,,F,][D,B,] | !>![C,F,A,C]2 !>![C,F,A,C]2 !>![C,F,A,C]3 [F,A,] | %11
w: way, Mas- ter while you *||
 [F,C]2 (CB,) [F,A,][F,B,][F,C][F,A,] | B,B,[A,C][_A,D] | [G,B,][_G,B,][F,B,][E,B,] | %14
w: may * * * * * *|||
 [D,B,]2 [D,B,]2 [D,B,][D,B,][D,B,][D,B,] | [F,B,] [F,B,]2 [F,A,] [F,A,][F,A,][F,A,][F,A,] | %16
w: ||
 [B,,B,]6 z2 |] %17
w: |
V:4
 x8 | x8 | x8 | B, x B,B, x4 | x8 | x6 (B,,D,) | x2 C,2 x C,2 x3 | x8 || x8 | x8 | x8 | x2 F,2 x4 | %12
 B,B, x2 | x4 | x8 | x8 | x8 |] %17

